img/platforms/11.svg

<?xml version="1.0" encoding="UTF-8"?>
<!-- Generator: Adobe Illustrator 23.0.1, SVG Export Plug-In . SVG Version: 6.00 Build 0)  -->
<svg version="1.1" id="Layer_1" xmlns="http://www.w3.org/2000/svg" xmlns:xlink="http://www.w3.org/1999/xlink" x="0px" y="0px" viewBox="0 0 100 43.91" enable-background="new 0 0 100 43.91" xml:space="preserve">
<path d="M75.617,23.232l4.352-5.981c-1.428-0.334-2.785-0.919-4.008-1.728c-1.209-0.919-1.885-2.379-1.803-3.896  c-0.062-1.531,0.677-2.985,1.95-3.837c1.692-1.008,3.65-1.481,5.616-1.357l0,0c7.65,0,9.642,4.022,10.995,5.724l4.103-5.639  c-0.694-1.13-1.571-2.136-2.596-2.976C91.369,1.18,87.162,0,81.605,0c-4.89,0-8.712,1.072-11.467,3.217  c-2.706,2.035-4.25,5.262-4.137,8.647C66.001,17.601,69.206,21.223,75.617,23.232z M96.709,22.929  c-1.917-1.707-4.887-3.044-8.91-4.011l-4.401,6.047c2.302,0.461,4.494,1.363,6.453,2.656c1.233,0.851,1.937,2.28,1.859,3.777  c0.092,1.78-0.733,3.484-2.187,4.515c-1.897,1.16-4.106,1.707-6.325,1.564l0,0c-6.361,0-9.36-2.108-12.423-7.597l0,0l-4.39,6.033  c0.783,1.612,1.912,3.033,3.306,4.16c3.133,2.558,7.556,3.837,13.27,3.837c5.359,0,9.537-1.131,12.532-3.394  c2.984-2.237,4.666-5.807,4.493-9.532c0.159-3.039-1.042-5.991-3.278-8.055L96.709,22.929z M58.886,42.97h-1.834V0.945h1.83  L58.886,42.97z M5.026,0.748C5.63,0.72,6.209,0.99,6.576,1.471c0.759,1.294,0.731,2.904-0.072,4.17  C6.06,6.16,5.402,6.444,4.721,6.412h-0.01V5.125H4.72c0.393,0.031,0.778-0.129,1.033-0.43c0.232-0.37,0.34-0.804,0.31-1.24  C6.086,3.1,5.998,2.746,5.812,2.442C5.646,2.21,5.374,2.079,5.089,2.094c-0.238-0.012-0.466,0.1-0.602,0.295  C4.298,2.726,4.172,3.094,4.116,3.476L4.001,4.047C3.92,4.652,3.669,5.221,3.278,5.689C2.929,6.054,2.44,6.254,1.935,6.237  c-0.55,0.017-1.074-0.232-1.406-0.67C0.153,5.024-0.03,4.372,0.008,3.713c-0.05-0.726,0.153-1.447,0.574-2.04  c0.402-0.47,0.992-0.738,1.611-0.732h0.01v1.268H2.198C1.872,2.206,1.562,2.346,1.346,2.59C1.137,2.918,1.04,3.305,1.072,3.693  c-0.019,0.315,0.057,0.629,0.218,0.9c0.137,0.202,0.369,0.32,0.613,0.31c0.241,0.012,0.473-0.095,0.62-0.286  c0.192-0.316,0.318-0.667,0.37-1.033l0.115-0.591c0.087-0.626,0.332-1.22,0.713-1.724C4.057,0.911,4.535,0.72,5.026,0.746  L5.026,0.748z M3.716,37.834c-0.381,0.505-0.626,1.098-0.713,1.724l-0.115,0.591c-0.052,0.366-0.178,0.717-0.37,1.033  c-0.147,0.191-0.379,0.298-0.62,0.286c-0.244,0.01-0.476-0.108-0.613-0.31c-0.161-0.271-0.237-0.585-0.218-0.9  c-0.031-0.388,0.065-0.775,0.275-1.103c0.215-0.244,0.526-0.384,0.851-0.382h0.009v-1.275h-0.01  c-0.619-0.006-1.208,0.262-1.611,0.732c-0.422,0.593-0.625,1.314-0.574,2.04c-0.038,0.659,0.146,1.312,0.522,1.854  c0.332,0.438,0.856,0.688,1.406,0.67c0.505,0.016,0.994-0.183,1.343-0.549c0.391-0.468,0.642-1.037,0.723-1.642l0.115-0.571  c0.057-0.382,0.182-0.75,0.371-1.087c0.136-0.196,0.364-0.307,0.602-0.295C5.375,38.638,5.647,38.769,5.813,39  c0.186,0.304,0.274,0.658,0.251,1.013c0.03,0.436-0.078,0.87-0.31,1.24c-0.255,0.301-0.64,0.461-1.033,0.43H4.712v1.28h0.01  c0.681,0.032,1.339-0.252,1.782-0.771c0.803-1.267,0.831-2.876,0.072-4.17c-0.366-0.481-0.946-0.752-1.55-0.723  c-0.494-0.025-0.974,0.17-1.311,0.532V37.834z M6.973,21.258v1.348l0,0c-0.252,0.129-0.533,0.192-0.816,0.183l-0.744,0.029  c-0.31-0.016-0.615,0.083-0.856,0.278c-0.18,0.226-0.266,0.511-0.241,0.799v1.666h2.662v1.306H0.16v-3.087  c0-0.148,0.007-0.295,0.022-0.442c0,0.044,0,0.091,0,0.14c0.014-0.461,0.149-0.91,0.389-1.304l-0.056,0.069  c0.048-0.081,0.102-0.159,0.162-0.232c0.345-0.42,0.867-0.654,1.41-0.632c0.733-0.05,1.404,0.411,1.622,1.113  c0.08-0.29,0.259-0.543,0.505-0.716c0.288-0.165,0.614-0.249,0.945-0.245l1.011-0.057c0.277,0.006,0.549-0.065,0.787-0.207  L6.973,21.258z M2.231,22.725c-0.28-0.016-0.552,0.098-0.737,0.31c-0.184,0.253-0.275,0.562-0.255,0.875v1.653H3.28v-1.711  c0.019-0.303-0.078-0.602-0.27-0.837c-0.205-0.207-0.49-0.314-0.781-0.293L2.231,22.725z M0.165,18.523h6.818v-1.306H0.165V18.523z   M1.339,9.033H0.165v5.022h6.818V9.033H5.808v3.719H4.067V9.389H2.94v3.363H1.334L1.339,9.033z M1.339,29.664H0.165v5.022h6.818  v-5.022H5.808v3.719H4.067V30.02H2.94v3.363H1.334L1.339,29.664z M9.937,42.969h9.043l6.87-9.441l-4.522-6.215L9.937,42.969z   M49.558,0.947h-9.043l-5.621,7.724l4.522,6.214L49.558,0.947z M20.229,0.947h-9.044l30.578,42.016h9.043L20.229,0.947z"/>
</svg>

<?xml version="1.0" encoding="UTF-8" standalone="no"?>
<!DOCTYPE svg PUBLIC "-//W3C//DTD SVG 1.1//EN" "http://www.w3.org/Graphics/SVG/1.1/DTD/svg11.dtd">
<svg width="100%" height="100%" viewBox="0 0 100 44" version="1.1" xmlns="http://www.w3.org/2000/svg" xmlns:xlink="http://www.w3.org/1999/xlink" xml:space="preserve" xmlns:serif="http://www.serif.com/" style="fill-rule:evenodd;clip-rule:evenodd;stroke-linejoin:round;stroke-miterlimit:2;">
    <path d="M75.617,23.232L79.969,17.251C78.541,16.917 77.184,16.332 75.961,15.523C74.752,14.604 74.076,13.144 74.158,11.627C74.096,10.096 74.835,8.642 76.108,7.79C77.8,6.782 79.758,6.309 81.724,6.433C89.374,6.433 91.366,10.455 92.719,12.157L96.822,6.518C96.128,5.388 95.251,4.382 94.226,3.542C91.369,1.18 87.162,0 81.605,0C76.715,0 72.893,1.072 70.138,3.217C67.432,5.252 65.888,8.479 66.001,11.864C66.001,17.601 69.206,21.223 75.617,23.232ZM96.709,22.929C94.792,21.222 91.822,19.885 87.799,18.918L83.398,24.965C85.7,25.426 87.892,26.328 89.851,27.621C91.084,28.472 91.788,29.901 91.71,31.398C91.802,33.178 90.977,34.882 89.523,35.913C87.626,37.073 85.417,37.62 83.198,37.477C76.837,37.477 73.838,35.369 70.775,29.88L66.385,35.913C67.168,37.525 68.297,38.946 69.691,40.073C72.824,42.631 77.247,43.91 82.961,43.91C88.32,43.91 92.498,42.779 95.493,40.516C98.477,38.279 100.159,34.709 99.986,30.984C100.145,27.945 98.944,24.993 96.708,22.929L96.709,22.929ZM58.886,42.97L57.052,42.97L57.052,0.945L58.882,0.945L58.886,42.97ZM5.026,0.748C5.63,0.72 6.209,0.99 6.576,1.471C7.335,2.765 7.307,4.375 6.504,5.641C6.06,6.16 5.402,6.444 4.721,6.412L4.711,6.412L4.711,5.125L4.72,5.125C5.113,5.156 5.498,4.996 5.753,4.695C5.985,4.325 6.093,3.891 6.063,3.455C6.086,3.1 5.998,2.746 5.812,2.442C5.646,2.21 5.374,2.079 5.089,2.094C4.851,2.082 4.623,2.194 4.487,2.389C4.298,2.726 4.172,3.094 4.116,3.476L4.001,4.047C3.92,4.652 3.669,5.221 3.278,5.689C2.929,6.054 2.44,6.254 1.935,6.237C1.385,6.254 0.861,6.005 0.529,5.567C0.153,5.024 -0.03,4.372 0.008,3.713C-0.042,2.987 0.161,2.266 0.582,1.673C0.984,1.203 1.574,0.935 2.193,0.941L2.203,0.941L2.203,2.209L2.198,2.209C1.872,2.206 1.562,2.346 1.346,2.59C1.137,2.918 1.04,3.305 1.072,3.693C1.053,4.008 1.129,4.322 1.29,4.593C1.427,4.795 1.659,4.913 1.903,4.903C2.144,4.915 2.376,4.808 2.523,4.617C2.715,4.301 2.841,3.95 2.893,3.584L3.008,2.993C3.095,2.367 3.34,1.773 3.721,1.269C4.057,0.911 4.535,0.72 5.026,0.746L5.026,0.748ZM3.716,37.834C3.335,38.339 3.09,38.932 3.003,39.558L2.888,40.149C2.836,40.515 2.71,40.866 2.518,41.182C2.371,41.373 2.139,41.48 1.898,41.468C1.654,41.478 1.422,41.36 1.285,41.158C1.124,40.887 1.048,40.573 1.067,40.258C1.036,39.87 1.132,39.483 1.342,39.155C1.557,38.911 1.868,38.771 2.193,38.773L2.202,38.773L2.202,37.498L2.192,37.498C1.573,37.492 0.984,37.76 0.581,38.23C0.159,38.823 -0.044,39.544 0.007,40.27C-0.031,40.929 0.153,41.582 0.529,42.124C0.861,42.562 1.385,42.812 1.935,42.794C2.44,42.81 2.929,42.611 3.278,42.245C3.669,41.777 3.92,41.208 4.001,40.603L4.116,40.032C4.173,39.65 4.298,39.282 4.487,38.945C4.623,38.749 4.851,38.638 5.089,38.65C5.375,38.638 5.647,38.769 5.813,39C5.999,39.304 6.087,39.658 6.064,40.013C6.094,40.449 5.986,40.883 5.754,41.253C5.499,41.554 5.114,41.714 4.721,41.683L4.712,41.683L4.712,42.963L4.722,42.963C5.403,42.995 6.061,42.711 6.504,42.192C7.307,40.925 7.335,39.316 6.576,38.022C6.21,37.541 5.63,37.27 5.026,37.299C4.532,37.274 4.052,37.469 3.715,37.831L3.715,37.834L3.716,37.834ZM6.973,21.258L6.973,22.606C6.721,22.735 6.44,22.798 6.157,22.789L5.413,22.818C5.103,22.802 4.798,22.901 4.557,23.096C4.377,23.322 4.291,23.607 4.316,23.895L4.316,25.561L6.978,25.561L6.978,26.867L0.16,26.867L0.16,23.78C0.16,23.632 0.167,23.485 0.182,23.338L0.182,23.478C0.196,23.017 0.331,22.568 0.571,22.174L0.515,22.243C0.563,22.162 0.617,22.084 0.677,22.011C1.022,21.591 1.544,21.357 2.087,21.379C2.82,21.329 3.491,21.79 3.709,22.492C3.789,22.202 3.968,21.949 4.214,21.776C4.502,21.611 4.828,21.527 5.159,21.531L6.17,21.474C6.447,21.48 6.719,21.409 6.957,21.267L6.973,21.258ZM2.231,22.725C1.951,22.709 1.679,22.823 1.494,23.035C1.31,23.288 1.219,23.597 1.239,23.91L1.239,25.563L3.28,25.563L3.28,23.852C3.299,23.549 3.202,23.25 3.01,23.015C2.805,22.808 2.52,22.701 2.229,22.722L2.231,22.725ZM0.165,18.523L6.983,18.523L6.983,17.217L0.165,17.217L0.165,18.523ZM1.339,9.033L0.165,9.033L0.165,14.055L6.983,14.055L6.983,9.033L5.808,9.033L5.808,12.752L4.067,12.752L4.067,9.389L2.94,9.389L2.94,12.752L1.334,12.752L1.339,9.033ZM1.339,29.664L0.165,29.664L0.165,34.686L6.983,34.686L6.983,29.664L5.808,29.664L5.808,33.383L4.067,33.383L4.067,30.02L2.94,30.02L2.94,33.383L1.334,33.383L1.339,29.664ZM9.937,42.969L18.98,42.969L25.85,33.528L21.328,27.313L9.937,42.969ZM49.558,0.947L40.515,0.947L34.894,8.671L39.416,14.885L49.558,0.947ZM20.229,0.947L11.185,0.947L41.763,42.963L50.806,42.963L20.229,0.947Z" style="fill:rgb(76,76,76);fill-rule:nonzero;"/>
</svg>
